brandFactory_export/3.Masa/Insecto _3Masa.svg

<?xml version="1.0" encoding="UTF-8"?>
<svg width="24px" height="24px" viewBox="0 0 24 24" version="1.1" xmlns="http://www.w3.org/2000/svg" xmlns:xlink="http://www.w3.org/1999/xlink">
    <title>3.Masa/Insecto _3Masa</title>
    <g id="Symbols" stroke="none" stroke-width="1" fill="none" fill-rule="evenodd">
        <g id="3.Masa/Insecto-_3Masa" fill="#5CB615" fill-rule="nonzero">
            <path d="M11.8722689,2.50084034 C8.58151261,2.50084034 8.00336134,3.22016807 8.00336134,4.73277311 C8.00336134,5.13277311 8.05378151,5.42857143 8.13109244,5.65714286 C9.10588235,5.17983193 10.3361345,4.94117647 11.8621849,4.94117647 C13.394958,4.94117647 14.6252101,5.18319328 15.6,5.66386555 C15.6773109,5.43529412 15.7378296,5.14621849 15.7378296,4.73277311 C15.7411765,3.22016807 15.1630252,2.50084034 11.8722689,2.50084034 Z M20.9747899,11.9428571 C21.3781513,11.9428571 21.7075885,12.2722689 21.7075885,12.6823529 L21.7075885,14.6554622 C21.7109244,15.0621849 21.3815126,15.3915966 20.9747899,15.394958 C20.5680672,15.3915966 20.2420168,15.0621849 20.2453782,14.6554622 L20.2453782,13.4218487 L18.7764706,13.4218487 C18.7764706,13.4957983 18.7798319,13.5596639 18.7798319,13.6369748 C18.7798319,15.5394958 18.6285714,17.1798319 18.1815126,18.5109244 L20.5512605,19.2403361 C20.8739496,19.3411765 21.0857143,19.6504202 21.0689076,19.9865546 L20.9109244,22.9579832 C20.8941176,23.3478992 20.5714286,23.6537815 20.1815126,23.6571429 L20.1411765,23.6571429 C19.7344538,23.6336134 19.4252101,23.2840336 19.4487395,22.8806723 L19.5764706,20.487395 L17.5529412,19.8655462 C16.5546218,21.4453782 14.8168067,22.3260504 11.8621849,22.3260504 C8.89411765,22.3260504 7.15630252,21.4386555 6.16134454,19.8521008 L4.0907563,20.487395 L4.21848739,22.8806723 C4.24201681,23.287395 3.93277311,23.6336134 3.52605042,23.6571429 L3.48571429,23.6571429 C3.09579832,23.6537815 2.77647059,23.3478992 2.75630252,22.9579832 L2.59831933,19.9865546 C2.57815126,19.6470588 2.79327731,19.3411765 3.11596639,19.2369748 L5.53277311,18.4941176 C5.09243697,17.1663866 4.94117647,15.5294118 4.94117647,13.6336134 L4.94453782,13.4184874 L3.4789916,13.4184874 L3.4789916,14.6554622 C3.48235294,15.0621849 3.15294118,15.3915966 2.74957983,15.394958 C2.34285714,15.3915966 2.01680672,15.0621849 2.01680672,14.6554622 L2.01680672,12.6823529 C2.01680672,12.2722689 2.34621849,11.9428571 2.74957983,11.9428571 L4.99495798,11.9428571 C5.08907563,10.3966387 5.34789916,8.87731092 6.0302521,7.65714286 L3.11596639,6.76302521 C2.79327731,6.66218487 2.57815126,6.35294118 2.59831933,6.01344538 L2.75630252,3.04201681 C2.77647059,2.63865546 3.11932773,2.32268908 3.52268908,2.34285714 C3.92605042,2.36638655 4.23529412,2.71260504 4.21512605,3.11932773 L4.08739496,5.51260504 L6.8302521,6.35630252 C6.63865546,5.89579832 6.53781513,5.36134454 6.53781513,4.73277311 C6.53781513,2.52773109 7.70756303,1.61008403 9.32436975,1.24369748 C9.0789916,0.951260504 9.09579832,0.521008403 9.36134454,0.248739496 C9.64033613,-0.0369747899 10.097479,-0.0403361345 10.3831933,0.238655462 L10.3932773,0.248739496 L11.1663866,1.03193277 C11.6268908,1.01512605 12.0840336,1.01176471 12.5445378,1.02857143 L13.3176471,0.245378151 C13.6,-0.0403361345 14.0571429,-0.043697479 14.3428571,0.238655462 L14.3495798,0.245378151 C14.6151261,0.517647059 14.6285714,0.944537815 14.3865546,1.23361345 C16.0134454,1.59327731 17.1966387,2.51092437 17.1966387,4.72605042 C17.1966387,5.34453782 17.0991597,5.87226891 16.9142857,6.32605042 L19.5731092,5.5092437 L19.4453782,3.11596639 C19.4218487,2.7092437 19.7310924,2.36302521 20.1378151,2.3394958 C20.5243697,2.3092437 20.887395,2.62857143 20.907563,3.03865546 L21.0655462,6.01008403 C21.0857143,6.34957983 20.8705882,6.65546218 20.5478992,6.75630252 L17.6806723,7.63361345 C18.2689076,8.66890756 18.605042,10.0504202 18.7193277,11.9327731 C18.7260504,11.9428571 20.9747899,11.9428571 20.9747899,11.9428571 Z M11.7848739,7.98991597 C11.3781513,7.99327731 11.0521008,8.32268908 11.0554622,8.72941176 L11.0554622,18.2487395 C11.0554622,18.6554622 11.3815126,18.9882353 11.7848739,18.9882353 C12.1882353,18.9882353 12.5176471,18.6554622 12.5176471,18.2487395 L12.5176471,8.72941176 C12.5176471,8.32268908 12.1915966,7.99327731 11.7848739,7.98991597 Z" id="Insecto-_3Masa"></path>
        </g>
    </g>
</svg>

<svg width="24" height="24" viewBox="0 0 24 24" xmlns="http://www.w3.org/2000/svg"><path d="M11.872 2.5c-3.29 0-3.869.72-3.869 2.233 0 .4.05.696.128.924.975-.477 2.205-.716 3.731-.716 1.533 0 2.763.242 3.738.723.077-.229.138-.518.138-.931.003-1.513-.575-2.232-3.866-2.232zm9.103 9.443c.403 0 .733.33.733.74v1.972a.736.736 0 01-.733.74.733.733 0 01-.73-.74v-1.233h-1.469c0 .074.004.138.004.215 0 1.902-.151 3.543-.598 4.874l2.37.73c.322.1.534.41.517.746l-.158 2.971a.734.734 0 01-.73.7h-.04a.736.736 0 01-.692-.777l.127-2.394-2.023-.621c-.998 1.58-2.736 2.46-5.69 2.46-2.969 0-4.707-.887-5.702-2.474l-2.07.635.127 2.394a.734.734 0 01-.692.776h-.04a.736.736 0 01-.73-.699l-.158-2.971a.743.743 0 01.518-.75l2.417-.743c-.44-1.328-.592-2.965-.592-4.86l.004-.216H3.479v1.237a.735.735 0 01-.73.74.738.738 0 01-.732-.74v-1.973c0-.41.33-.74.733-.74h2.245c.094-1.545.353-3.065 1.035-4.285l-2.914-.894a.74.74 0 01-.518-.75l.158-2.971a.735.735 0 01.767-.7c.403.024.712.37.692.777l-.128 2.394 2.743.843c-.191-.46-.292-.995-.292-1.623 0-2.205 1.17-3.123 2.786-3.49A.742.742 0 019.361.25a.722.722 0 011.022-.01l.01.01.773.783c.46-.017.918-.02 1.379-.003l.773-.784A.723.723 0 0114.343.24l.007.006c.265.273.279.7.037.989 1.626.36 2.81 1.277 2.81 3.492 0 .619-.098 1.146-.283 1.6l2.66-.817-.129-2.393a.734.734 0 01.693-.777c.386-.03.75.29.77.7l.158 2.971a.736.736 0 01-.518.746l-2.867.878c.588 1.035.924 2.416 1.038 4.299.007.01 2.256.01 2.256.01zm-9.19-3.953a.733.733 0 00-.73.74v9.519c0 .406.327.74.73.74a.738.738 0 00.733-.74v-9.52a.738.738 0 00-.733-.74z" fill="#5CB615" fill-rule="nonzero"/></svg>
